X:556
T: WAS MACHT IHR DASS IHR WEINET
N: F1091
O: Europa, Mitteleuropa, Deutschland
R: Trost - Lied, religioes, Abschied
M: 4/4
L: 1/8
K: Bb
F2 | F2B2B2dc | B4F2
B2 | e3de2f2 | d4z2
d2 | c3GA2B2 | B4A2
d2 | c3BA2G2 | F4z2
F2 | c3BA2B2 | c3dc2
F2 | e3dc2B2 | c4z2
F2 | B2B2d3f | f4e2
Bc | d3Bd2cB | B6

